X:1
T:Nine Inch Will Please a Lady
M:6/8
L:1/8
K:G
 GAB D2 B| A2 G E3| GAB D2 D| E2- F G3| GAB D2 B| A2 G E3| GAB D2 D|\
 E2- F G2 d|d-c B e2 d| d2 c B2 d| d2 B e2 B| B3 A2 d|d-c B e2 d| d2- c B2 d|\
 GAB D2 D| E3 G3|
